flaticon/web-design/pixel.svg

<svg xmlns="http://www.w3.org/2000/svg" width="32" height="32" viewBox="0 0 24 24">
    <path d="M3.511719 11.925781L1.492188 11.925781C1.28125 11.925781 1.113281 12.09375 1.113281 12.304688L1.113281 14.324219C1.113281 14.535156 1.28125 14.703125 1.492188 14.703125L3.511719 14.703125C3.722656 14.703125 3.890625 14.535156 3.890625 14.324219L3.890625 12.304688C3.890625 12.09375 3.722656 11.925781 3.511719 11.925781zM3.132812 13.945312L1.871094 13.945312 1.871094 12.683594 3.132812 12.683594zM4.320312 15.15625L2.300781 15.15625C2.089844 15.15625 1.921875 15.328125 1.921875 15.535156L1.921875 17.558594C1.921875 17.765625 2.089844 17.9375 2.300781 17.9375L4.320312 17.9375C4.53125 17.9375 4.699219 17.765625 4.699219 17.558594L4.699219 15.535156C4.699219 15.328125 4.527344 15.15625 4.320312 15.15625zM3.941406 17.179688L2.679688 17.179688 2.679688 15.914062 3.941406 15.914062zM13.011719 21.222656L10.988281 21.222656C10.78125 21.222656 10.609375 21.390625 10.609375 21.601562L10.609375 23.621094C10.609375 23.832031 10.78125 24 10.988281 24L13.011719 24C13.21875 24 13.390625 23.832031 13.390625 23.621094L13.390625 21.601562C13.390625 21.390625 13.21875 21.222656 13.011719 21.222656zM12.632812 23.242188L11.367188 23.242188 11.367188 21.980469 12.632812 21.980469zM9.171875 20.613281L7.148438 20.613281C6.941406 20.613281 6.769531 20.785156 6.769531 20.992188L6.769531 23.015625C6.769531 23.222656 6.941406 23.394531 7.148438 23.394531L9.171875 23.394531C9.378906 23.394531 9.550781 23.222656 9.550781 23.015625L9.550781 20.992188C9.550781 20.785156 9.378906 20.613281 9.171875 20.613281zM8.792969 22.636719L7.527344 22.636719 7.527344 21.371094 8.792969 21.371094zM5.9375 18.390625L3.914062 18.390625C3.707031 18.390625 3.535156 18.5625 3.535156 18.769531L3.535156 20.792969C3.535156 21 3.707031 21.171875 3.914062 21.171875L5.9375 21.171875C6.144531 21.171875 6.316406 21 6.316406 20.792969L6.316406 18.769531C6.316406 18.5625 6.144531 18.390625 5.9375 18.390625zM5.558594 20.414062L4.292969 20.414062 4.292969 19.148438 5.558594 19.148438zM22.507812 11.925781L20.488281 11.925781C20.277344 11.925781 20.109375 12.09375 20.109375 12.304688L20.109375 14.324219C20.109375 14.535156 20.277344 14.703125 20.488281 14.703125L22.507812 14.703125C22.71875 14.703125 22.886719 14.535156 22.886719 14.324219L22.886719 12.304688C22.886719 12.09375 22.71875 11.925781 22.507812 11.925781zM22.128906 13.945312L20.867188 13.945312 20.867188 12.683594 22.128906 12.683594zM21.699219 15.15625L19.679688 15.15625C19.472656 15.15625 19.300781 15.328125 19.300781 15.535156L19.300781 17.558594C19.300781 17.765625 19.472656 17.9375 19.679688 17.9375L21.699219 17.9375C21.910156 17.9375 22.078125 17.765625 22.078125 17.558594L22.078125 15.535156C22.078125 15.328125 21.910156 15.15625 21.699219 15.15625zM21.320312 17.179688L20.058594 17.179688 20.058594 15.914062 21.320312 15.914062zM16.851562 20.613281L14.828125 20.613281C14.621094 20.613281 14.449219 20.785156 14.449219 20.992188L14.449219 23.015625C14.449219 23.222656 14.621094 23.394531 14.828125 23.394531L16.851562 23.394531C17.058594 23.394531 17.230469 23.222656 17.230469 23.015625L17.230469 20.992188C17.230469 20.785156 17.058594 20.613281 16.851562 20.613281zM16.472656 22.636719L15.207031 22.636719 15.207031 21.371094 16.472656 21.371094zM20.085938 18.390625L18.0625 18.390625C17.855469 18.390625 17.683594 18.5625 17.683594 18.769531L17.683594 20.792969C17.683594 21 17.855469 21.171875 18.0625 21.171875L20.085938 21.171875C20.292969 21.171875 20.464844 21 20.464844 20.792969L20.464844 18.769531C20.464844 18.5625 20.292969 18.390625 20.085938 18.390625zM19.707031 20.414062L18.441406 20.414062 18.441406 19.148438 19.707031 19.148438zM13.890625 10.203125L14.398438.398438C14.40625.292969 14.367188.191406 14.296875.117188 14.222656.0429688 14.125 0 14.019531 0L9.980469 0C9.875 0 9.777344.0429688 9.703125.117188 9.632812.191406 9.59375.292969 9.601562.398438L10.109375 10.203125C8.914062 10.882812 8.183594 12.128906 8.183594 13.515625 8.183594 14.367188 8.777344 15.890625 9.949219 18.046875 10.804688 19.621094 11.671875 20.980469 11.679688 20.996094 11.75 21.105469 11.871094 21.171875 12 21.171875 12.128906 21.171875 12.25 21.105469 12.320312 20.996094 12.328125 20.980469 13.195312 19.621094 14.050781 18.046875 15.222656 15.890625 15.816406 14.367188 15.816406 13.515625 15.816406 12.128906 15.085938 10.882812 13.890625 10.203125zM13.621094.757812L13.390625 5.253906 10.609375 5.253906 10.378906.757812zM13.351562 6.011719L13.148438 9.878906C12.78125 9.761719 12.394531 9.699219 12 9.699219 11.605469 9.699219 11.21875 9.761719 10.851562 9.878906L10.648438 6.011719zM12 20.078125C10.921875 18.324219 8.941406 14.835938 8.941406 13.515625 8.941406 12.335938 9.601562 11.285156 10.664062 10.765625 11.082031 10.5625 11.53125 10.457031 12 10.457031 12.46875 10.457031 12.917969 10.5625 13.335938 10.765625 14.398438 11.285156 15.058594 12.335938 15.058594 13.515625 15.058594 14.835938 13.078125 18.324219 12 20.078125zM12 20.078125"/>
    <path d="M13.363281 15.195312C13.171875 15.105469 12.949219 15.1875 12.859375 15.375 12.640625 15.847656 12.371094 16.375 12.0625 16.945312 11.960938 17.128906 12.027344 17.359375 12.214844 17.460938 12.269531 17.492188 12.332031 17.507812 12.394531 17.507812 12.527344 17.507812 12.660156 17.433594 12.726562 17.308594 13.042969 16.722656 13.320312 16.183594 13.546875 15.699219 13.632812 15.507812 13.554688 15.28125 13.363281 15.195312zM12 11.21875C11.789062 11.21875 11.621094 11.386719 11.621094 11.597656 11.621094 11.804688 11.789062 11.976562 12 11.976562 12.847656 11.976562 13.539062 12.664062 13.542969 13.511719 13.539062 13.535156 13.515625 13.78125 13.28125 14.390625 13.207031 14.585938 13.304688 14.804688 13.5 14.878906 13.546875 14.898438 13.589844 14.90625 13.636719 14.90625 13.789062 14.90625 13.933594 14.8125 13.992188 14.660156 14.277344 13.910156 14.300781 13.59375 14.300781 13.515625 14.300781 12.25 13.269531 11.21875 12 11.21875zM12 11.21875"/>
</svg>

<svg xmlns="http://www.w3.org/2000/svg" width="32" height="32" viewBox="0 0 24 24">
    <path d="M3.512 11.926h-2.02a.377.377 0 0 0-.379.379v2.02c0 .21.168.378.38.378h2.019c.21 0 .379-.168.379-.379v-2.02a.377.377 0 0 0-.38-.378zm-.38 2.02h-1.26v-1.262h1.26zm0 0M4.32 15.156H2.3a.38.38 0 0 0-.378.38v2.023a.38.38 0 0 0 .379.378h2.02a.38.38 0 0 0 .378-.378v-2.024a.382.382 0 0 0-.379-.379zm-.379 2.024H2.68v-1.266H3.94zm0 0M13.012 21.223h-2.024a.38.38 0 0 0-.379.379v2.02c0 .21.172.378.38.378h2.023a.38.38 0 0 0 .379-.379v-2.02a.38.38 0 0 0-.38-.378zm-.38 2.02h-1.265V21.98h1.266zm0 0M9.172 20.613H7.148a.382.382 0 0 0-.378.38v2.023c0 .207.171.379.378.379h2.024a.382.382 0 0 0 .379-.38v-2.023a.382.382 0 0 0-.38-.379zm-.379 2.024H7.527V21.37h1.266zm0 0M5.938 18.39H3.913a.382.382 0 0 0-.379.38v2.023c0 .207.172.379.38.379h2.022a.382.382 0 0 0 .38-.379V18.77a.382.382 0 0 0-.38-.38zm-.38 2.024H4.294v-1.266h1.266zm0 0M22.508 11.926h-2.02a.377.377 0 0 0-.379.379v2.02c0 .21.168.378.38.378h2.019c.21 0 .379-.168.379-.379v-2.02a.377.377 0 0 0-.38-.378zm-.38 2.02h-1.26v-1.262h1.26zm0 0M21.7 15.156h-2.02a.382.382 0 0 0-.38.38v2.023c0 .207.173.378.38.378h2.02a.38.38 0 0 0 .378-.378v-2.024a.38.38 0 0 0-.379-.379zm-.38 2.024H20.06v-1.266h1.261zm0 0M16.852 20.613h-2.024a.382.382 0 0 0-.379.38v2.023c0 .207.172.379.38.379h2.023a.382.382 0 0 0 .378-.38v-2.023a.382.382 0 0 0-.378-.379zm-.38 2.024h-1.265V21.37h1.266zm0 0M20.086 18.39h-2.023a.382.382 0 0 0-.38.38v2.023c0 .207.172.379.38.379h2.023a.382.382 0 0 0 .379-.379V18.77a.382.382 0 0 0-.38-.38zm-.379 2.024h-1.266v-1.266h1.266zm0 0"/>
    <path d="M13.89 10.203l.508-9.805a.37.37 0 0 0-.101-.28A.39.39 0 0 0 14.02 0H9.98a.39.39 0 0 0-.277.117.37.37 0 0 0-.101.281l.507 9.805a3.784 3.784 0 0 0-1.925 3.313c0 .851.593 2.375 1.765 4.53.856 1.575 1.723 2.934 1.73 2.95a.382.382 0 0 0 .64 0c.01-.016.876-1.375 1.732-2.95 1.172-2.155 1.765-3.679 1.765-4.53 0-1.387-.73-2.633-1.925-3.313zM13.622.758l-.23 4.496h-2.782L10.38.758zm-.27 5.254l-.203 3.867a3.776 3.776 0 0 0-2.296 0l-.204-3.867zM12 20.078c-1.078-1.754-3.059-5.242-3.059-6.562 0-1.18.66-2.23 1.723-2.75A3.033 3.033 0 0 1 12 10.457c.469 0 .918.105 1.336.309a3.04 3.04 0 0 1 1.723 2.75c0 1.32-1.98 4.808-3.059 6.562zm0 0"/>
    <path d="M13.363 15.195a.378.378 0 0 0-.504.18c-.218.473-.488 1-.796 1.57a.377.377 0 0 0 .152.516.363.363 0 0 0 .18.047.38.38 0 0 0 .332-.2c.316-.585.593-1.124.82-1.609a.379.379 0 0 0-.184-.504zm0 0M12 11.219a.38.38 0 0 0 0 .758c.848 0 1.54.687 1.543 1.535-.004.023-.027.27-.262.879a.378.378 0 0 0 .219.488c.047.02.09.027.137.027a.382.382 0 0 0 .355-.246c.285-.75.309-1.066.309-1.144A2.301 2.301 0 0 0 12 11.219zm0 0"/>
</svg>
